src/assets/images/ch-1_frame_5b-4/frame_mask.svg

<svg width="1405" height="866" preserveAspectRatio="none"  viewBox="0 0 1405 866" fill="none" xmlns="http://www.w3.org/2000/svg">
<path fill-rule="evenodd" clip-rule="evenodd" d="M254.584 0.711942C253.94 1.34894 235.558 2.23708 219.132 2.42508C211.432 2.51408 202.207 2.99607 198.632 3.49807C195.057 3.99907 177.957 4.58887 160.632 4.80887C143.307 5.02787 117.432 5.46102 103.132 5.77102C81.4763 6.24102 12.3342 7.36407 6.39524 7.34207C0.477239 7.32107 -1.73661 94.431 2.25339 170.336C2.98239 184.21 2.92321 228.235 2.11521 271.836C1.31021 315.348 1.30921 315.679 1.96921 342.336C2.28921 355.261 2.76818 393.286 3.03318 426.836C3.29818 460.386 3.77025 494.136 4.08225 501.836C5.79325 544.063 6.25328 597.815 4.98728 607.602C4.64828 610.223 4.87042 621.698 5.48142 633.102C7.24542 666.02 7.91221 680.968 8.18821 693.836C8.33021 700.436 8.71235 711.011 9.03635 717.336C10.6954 749.697 11.1094 763.205 10.8774 777.336C10.7374 785.861 11.0993 798.236 11.6823 804.836C12.2643 811.436 12.9562 819.311 13.2182 822.336C14.0772 832.244 15.5703 838.569 17.3733 839.937C18.3403 840.672 18.7162 841.287 18.2082 841.304C17.6992 841.322 18.3403 842.461 19.6323 843.836C22.1403 846.506 28.1263 847.353 28.8633 845.143C29.1703 844.222 30.8582 844.235 36.2602 845.2C40.1102 845.888 46.8313 846.24 51.1963 845.981C58.2853 845.562 68.2253 845.991 94.1323 847.834C98.5323 848.147 103.482 848.802 105.132 849.289C108.963 850.42 128.731 853.056 139.132 853.823C143.532 854.147 149.607 854.82 152.632 855.318C155.657 855.817 161.732 856.51 166.132 856.858C170.532 857.206 176.157 857.689 178.632 857.931C181.107 858.172 187.857 858.599 193.632 858.878C199.407 859.157 211.332 860.022 220.132 860.8C273.489 865.516 334.448 866.718 433.132 865C459.532 864.541 502.057 864.008 527.632 863.817C553.207 863.626 577.507 863.052 581.632 862.542C585.757 862.032 600.548 861.545 614.501 861.461C628.454 861.376 640.192 861.108 640.585 860.865C640.977 860.623 647.561 860.36 655.215 860.282C662.869 860.203 672.779 859.771 677.236 859.32C694.593 857.566 901.513 858.789 904.412 860.663C905.116 861.119 917.491 861.926 931.912 862.458C954.881 863.305 970.25 863.645 1015.76 864.312C1021.61 864.398 1029.03 864.012 1032.26 863.455C1035.91 862.825 1049.87 862.667 1069.13 863.038C1086.18 863.366 1105.76 863.595 1112.63 863.548C1134.7 863.395 1193.7 863.412 1207.63 863.575C1215.06 863.662 1239.36 863.662 1261.63 863.575C1283.91 863.488 1308.43 863.483 1316.13 863.564C1323.83 863.645 1336.63 863.45 1344.57 863.132C1354.58 862.73 1359.58 862.902 1360.86 863.694C1362.4 864.641 1363.03 864.431 1364.52 862.469C1365.79 860.801 1366.91 860.288 1368.31 860.734C1378.08 863.836 1383.51 852.423 1386.08 823.336C1386.39 819.761 1386.86 814.811 1387.12 812.336C1387.38 809.861 1387.84 801.613 1388.15 794.006C1388.77 778.468 1389.74 768.205 1392.54 747.853C1393.59 740.163 1394.57 726.663 1394.72 717.853C1395.05 697.399 1395.14 695.658 1395.97 690.836C1397.55 681.762 1397.89 676.035 1397.8 660.336C1397.74 648.584 1398.18 641.678 1399.33 636.336C1400.56 630.635 1400.91 623.8 1400.82 607.836C1400.75 596.192 1401.27 581.864 1401.99 575.675C1402.7 569.537 1403.38 556.937 1403.5 547.675C1403.61 538.414 1404.06 524.986 1404.5 517.836C1404.96 510.358 1404.89 500.8 1404.34 495.336C1403.23 484.291 1403.23 484.272 1403.48 461.336C1403.59 451.711 1403.22 440.011 1402.66 435.336C1402.1 430.661 1401.64 419.186 1401.63 409.836C1401.62 400.486 1400.95 387.452 1400.12 380.872C1399.26 373.968 1398.84 365.086 1399.13 359.872C1399.4 354.902 1399.54 346.336 1399.44 340.836C1399.13 323.504 1399.23 308.301 1399.76 293.836C1400.04 286.136 1400.01 275.336 1399.7 269.836C1399.39 264.336 1399.47 256.236 1399.89 251.836C1400.31 247.436 1400.58 238.211 1400.48 231.336C1400.39 224.461 1400.46 212.761 1400.63 205.336C1401.47 168.467 1399.58 83.033 1397.61 69.253C1395.56 54.97 1389.56 46.2169 1379.63 43.0349C1374.73 41.4649 1343.99 36.389 1335.63 35.771C1330.96 35.426 1326.89 34.9931 1326.59 34.8101C1325.91 34.3901 1314.27 33.504 1300.63 32.834C1272.17 31.437 1252.98 30.1409 1241.63 28.8509C1234.76 28.0689 1221.48 27.172 1212.13 26.857C1202.78 26.543 1193.33 26.087 1191.13 25.844C1188.93 25.602 1182.63 25.1508 1177.13 24.8408C1171.63 24.5318 1163.53 23.8559 1159.13 23.3389C1154.73 22.8219 1146.86 22.192 1141.63 21.94C1132.74 21.511 1121.93 20.6659 1095 18.2989C1088.87 17.7609 1076.95 17.0811 1068.5 16.7901C1060.05 16.4981 1046.38 15.7929 1038.13 15.2239C1029.88 14.6549 1010.98 13.819 996.132 13.367C981.282 12.915 968.457 12.2829 967.632 11.9619C966.194 11.4019 961.466 11.1889 921.132 9.86087C911.232 9.53487 898.407 9.01697 892.632 8.71097C872.792 7.65797 857.115 6.98604 846.632 6.73904C829.503 6.33704 791.33 6.32808 788.632 6.72708C783.992 7.41208 750.301 8.55591 724.632 8.90091C710.607 9.08891 696.657 9.48386 693.632 9.77786C682.658 10.8449 476.308 9.87192 474.483 8.74392C473.595 8.19492 432.668 6.5049 403.632 5.8179C388.6 5.4629 375.854 4.78199 357.132 3.33499C328.813 1.14599 317.768 0.702031 301.632 1.10403C277.623 1.70203 261.226 1.62491 257.927 0.900906C256.337 0.550906 254.832 0.466942 254.584 0.711942Z" fill="#025354"/>
</svg>

<svg xmlns="http://www.w3.org/2000/svg" width="1405" height="866" fill="none" preserveAspectRatio="none" viewBox="0 0 1405 866"><path fill="#025354" fill-rule="evenodd" d="M254.584.712c-.644.637-19.026 1.525-35.452 1.713-7.7.09-16.925.571-20.5 1.073-3.575.501-20.675 1.09-38 1.31-17.325.22-43.2.653-57.5.963-21.656.47-90.798 1.593-96.737 1.571-5.918-.02-8.132 87.089-4.142 162.994.73 13.874.67 57.899-.138 101.5-.805 43.512-.806 43.843-.146 70.5.32 12.925.8 50.95 1.064 84.5.265 33.55.737 67.3 1.05 75 1.71 42.227 2.17 95.979.904 105.766-.339 2.621-.117 14.096.494 25.5 1.764 32.918 2.431 47.866 2.707 60.734.142 6.6.524 17.175.848 23.5 1.66 32.361 2.073 45.869 1.841 60-.14 8.525.222 20.9.805 27.5.582 6.6 1.274 14.475 1.536 17.5.86 9.908 2.352 16.233 4.155 17.601.967.735 1.343 1.35.835 1.367-.509.018.132 1.157 1.424 2.532 2.508 2.67 8.494 3.517 9.231 1.307.307-.921 1.995-.908 7.397.057 3.85.688 10.571 1.04 14.936.781 7.09-.419 17.03.01 42.936 1.853 4.4.313 9.35.968 11 1.455 3.831 1.131 23.599 3.767 34 4.534 4.4.324 10.475.997 13.5 1.495 3.025.499 9.1 1.192 13.5 1.54 4.4.348 10.025.831 12.5 1.073 2.475.241 9.225.668 15 .947 5.775.279 17.7 1.144 26.5 1.922 53.357 4.716 114.316 5.918 213 4.2 26.4-.459 68.925-.992 94.5-1.183 25.575-.191 49.875-.765 54-1.275 4.125-.51 18.916-.997 32.869-1.081 13.953-.085 25.691-.353 26.084-.596.392-.242 6.976-.505 14.63-.583 7.654-.079 17.564-.511 22.021-.962 17.357-1.754 224.277-.531 227.176 1.343.704.456 13.079 1.263 27.5 1.795 22.969.847 38.338 1.187 83.848 1.854 5.85.086 13.27-.3 16.5-.857 3.65-.63 17.61-.788 36.87-.417 17.05.328 36.63.557 43.5.51 22.07-.153 81.07-.136 95 .027 7.43.087 31.73.087 54 0 22.28-.087 46.8-.092 54.5-.011 7.7.081 20.5-.114 28.44-.432 10.01-.402 15.01-.23 16.29.562 1.54.947 2.17.737 3.66-1.225 1.27-1.668 2.39-2.181 3.79-1.735 9.77 3.102 15.2-8.311 17.77-37.398.31-3.575.78-8.525 1.04-11 .26-2.475.72-10.723 1.03-18.33.62-15.538 1.59-25.801 4.39-46.153 1.05-7.69 2.03-21.19 2.18-30 .33-20.454.42-22.195 1.25-27.017 1.58-9.074 1.92-14.801 1.83-30.5-.06-11.752.38-18.658 1.53-24 1.23-5.701 1.58-12.536 1.49-28.5-.07-11.644.45-25.972 1.17-32.161.71-6.138 1.39-18.738 1.51-28 .11-9.261.56-22.689 1-29.839.46-7.478.39-17.036-.16-22.5-1.11-11.045-1.11-11.064-.86-34 .11-9.625-.26-21.325-.82-26-.56-4.675-1.02-16.15-1.03-25.5-.01-9.35-.68-22.384-1.51-28.964-.86-6.904-1.28-15.786-.99-21 .27-4.97.41-13.536.31-19.036-.31-17.332-.21-32.535.32-47 .28-7.7.25-18.5-.06-24s-.23-13.6.19-18c.42-4.4.69-13.625.59-20.5-.09-6.875-.02-18.575.15-26 .84-36.869-1.05-122.303-3.02-136.083-2.05-14.283-8.05-23.036-17.98-26.218-4.9-1.57-35.64-6.646-44-7.264-4.67-.345-8.74-.778-9.04-.96-.68-.42-12.32-1.307-25.96-1.977-28.46-1.397-47.65-2.693-59-3.983-6.87-.782-20.15-1.679-29.5-1.994-9.35-.314-18.8-.77-21-1.013-2.2-.242-8.5-.693-14-1.003-5.5-.31-13.6-.985-18-1.502s-12.27-1.147-17.5-1.399c-8.89-.429-19.7-1.274-46.63-3.641-6.13-.538-18.05-1.218-26.5-1.509-8.45-.292-22.12-.997-30.37-1.566-8.25-.57-27.15-1.405-41.998-1.857-14.85-.452-27.675-1.084-28.5-1.405-1.438-.56-6.166-.773-46.5-2.101-9.9-.326-22.725-.844-28.5-1.15-19.84-1.053-35.517-1.725-46-1.972-17.129-.402-55.302-.41-58-.012-4.64.685-38.331 1.829-64 2.174-14.025.188-27.975.583-31 .877-10.974 1.067-217.324.094-219.149-1.034-.888-.55-41.815-2.24-70.851-2.926-15.032-.355-27.778-1.036-46.5-2.483-28.319-2.189-39.364-2.633-55.5-2.231-24.009.598-40.406.52-43.705-.203-1.59-.35-3.095-.434-3.343-.19Z" clip-rule="evenodd"/></svg>
